icon/hi/archive.svg

<svg viewBox="0 0 20 20" fill="none" xmlns="http://www.w3.org/2000/svg" height="1em" width="1em">
  <path d="M4 3C2.89543 3 2 3.89543 2 5C2 6.10457 2.89543 7 4 7H16C17.1046 7 18 6.10457 18 5C18 3.89543 17.1046 3 16 3H4Z" fill="#4A5568"/>
  <path fill-rule="evenodd" clip-rule="evenodd" d="M3 8H17V15C17 16.1046 16.1046 17 15 17H5C3.89543 17 3 16.1046 3 15V8ZM8 11C8 10.4477 8.44772 10 9 10H11C11.5523 10 12 10.4477 12 11C12 11.5523 11.5523 12 11 12H9C8.44772 12 8 11.5523 8 11Z" fill="#4A5568"/>
</svg>

<svg width="20" height="20" fill="none" xmlns="http://www.w3.org/2000/svg"><path d="M4 3a2 2 0 1 0 0 4h12a2 2 0 1 0 0-4H4Z" fill="#4A5568"/><path fill-rule="evenodd" clip-rule="evenodd" d="M3 8h14v7a2 2 0 0 1-2 2H5a2 2 0 0 1-2-2V8Zm5 3a1 1 0 0 1 1-1h2a1 1 0 1 1 0 2H9a1 1 0 0 1-1-1Z" fill="#4A5568"/></svg>
